app/dist/common/images/suzhou-hyc-technology-co-ltd.svg

<!-- by TradingView --><svg width="18" height="18" viewBox="0 0 18 18" xmlns="http://www.w3.org/2000/svg"><path fill="#F0F3FA" d="M0 0h18v18H0z"/><path fill="#0B577A" d="M3 7h1v1H3zM7 7h1v1H7z"/><path d="M3 8.5V11h1V9.5h1.5V11h1V7h-1v1.5H3ZM7 8.5h3V7h1v1.8c0 .4-.34.7-.77.7h-.66V11H8.43V9.5h-.66c-.43 0-.77-.3-.77-.7v-.3ZM12.2 7a.7.7 0 0 0-.7.7V8H14v.5h1v-.8a.7.7 0 0 0-.7-.7h-2.1ZM15 9.5h-1v.5h-1.5V8.5h-1v1.8c0 .38.31.7.7.7h2.1a.7.7 0 0 0 .7-.7v-.8Z" fill="#504E4B"/></svg>

<svg height="18" viewBox="0 0 18 18" width="18" xmlns="http://www.w3.org/2000/svg"><path d="m0 0h18v18h-18z" fill="#f0f3fa"/><path d="m3 7h1v1h-1zm4 0h1v1h-1z" fill="#0b577a"/><path d="m3 8.5v2.5h1v-1.5h1.5v1.5h1v-4h-1v1.5zm4 0h3v-1.5h1v1.8c0 .4-.34.7-.77.7h-.66v1.5h-1.14v-1.5h-.66c-.43 0-.77-.3-.77-.7zm5.2-1.5a.7.7 0 0 0 -.7.7v.3h2.5v.5h1v-.8a.7.7 0 0 0 -.7-.7zm2.8 2.5h-1v.5h-1.5v-1.5h-1v1.8c0 .38.31.7.7.7h2.1a.7.7 0 0 0 .7-.7z" fill="#504e4b"/></svg>
